files/resources/svgs/general/o-flag.svg

<svg width="24" height="24" viewBox="0 0 24 24" fill="none" xmlns="http://www.w3.org/2000/svg">
<path d="M3 3V4.5M3 21V15M3 15L5.77009 14.3075C7.85435 13.7864 10.0562 14.0281 11.9778 14.9889L12.0856 15.0428C13.9687 15.9844 16.1224 16.2359 18.1718 15.7537L21.2861 15.0209C21.097 13.2899 21 11.5313 21 9.75C21 7.98343 21.0954 6.23914 21.2814 4.52202L18.1718 5.25369C16.1224 5.73591 13.9687 5.48435 12.0856 4.54278L11.9778 4.48892C10.0562 3.52812 7.85435 3.28641 5.77009 3.80748L3 4.5M3 15V4.5" stroke="#0F172A" stroke-width="1.5" stroke-linecap="round" stroke-linejoin="round"/>
</svg>

<svg xmlns="http://www.w3.org/2000/svg" fill="none" viewBox="0 0 24 24" stroke-width="1.5" stroke="currentColor" aria-hidden="true">
  <path stroke-linecap="round" stroke-linejoin="round" d="M3 3v1.5M3 21v-6m0 0l2.77-.693a9 9 0 016.208.682l.108.054a9 9 0 006.086.71l3.114-.732a48.524 48.524 0 01-.005-10.499l-3.11.732a9 9 0 01-6.085-.711l-.108-.054a9 9 0 00-6.208-.682L3 4.5M3 15V4.5"/>
</svg>
